X:1
T: The Marquis of Huntly
C:William Marshall
R:Strathspey
Q: 128
K:Gm
M:4/4
L:1/16
|:DG3 G3F DG3 G4|F3G AB3 cA3 FA3|DG3 G3F DG3 G4|f2c2 dcBA G4-G4|
DG3 G3F DG3 G4|F3G AB3 cA3 FA3|DG3 G3F DG3 G4|f2c2 dcBA G4-G4|
g3a bg3 d2g2 b2g2|agfd c3d fc3 af3|g3a bg3 d2g2 b2g2|bagf d3f ggg2 g4|
g3a b3g a3f g3d|fc3 df3 AF3 cA3|DG3 G3F DG3 G4|f2c2 dcBA G4 G4:|
